X:201
T:Stirred not Shaken
R:swing
C:© Paul Gitlitz 2011
M:C|
L:1/8
K:Gm
"D7"^cdcd "Gm7"BG3|"Bbm6"^cd3 "Eb7"B4|"D7"^cdcd "Gm7"BGDz|"Adim"D^F3 "Gm7"G4|!
"D7"^cdcd "Gm7"BG3|"D7"^cd3 "Gm7"B4|gdBG "Em7b5"AG2D|"D7"D^F3 "Gm7"G4:|!
|:"D7"^FAc^c "Ebdim"dd2A|"D7"^FAdc- "F#dim"c4|"D7"^FAc^c "Ebdim"dgd=c|"Bb"B "Am7"A3 "Gm7"G4|!
"F#dim"^FAc^c "Ebdim"dd2A|"F#dim"^FAcA- "D7"A4|"Cm7"ecA^F "Gm7"GABd|"D7"A^FD2 "Gm7"G4:|]
